X: 229
T: Jim Kelly's
R: reel
M: 4/4
L: 1/8
K: Dmaj
dB|AFF2 BFAF|DEFA BABd|eBB2 egfe|dfed BedB|
AFF2 BFAF|DEFA BABd|egfg efdB|AFGE D2:|
|:A2|d3e fefg|afbf afdf|eBB2 gBB2|fedf edBd|
AFF2 ABdf|aba^g afdf|=g2fg efdB|1 AFGE D2:|2 AFGE D4 |]
